X:71
T: Die plappernden Junggesellen
N: A0075
O: Europa, Mitteleuropa, Deutschland
N: Melodie in Francks Fasc. quodl. 1611 No. 4. Rhythmus von Boehme
N: ueberarbeitet.
R: Romanze, Ballade, Lied
M: 4/4
L: 1/8
K: G
D2 | G4B4 | d6c2 | B4A4 | G4z2
D2 | G4B4 | d6c2 | B4A4 | G4z2
B2 | B2B2B2B2 | B4A2G2 | B2d2c2B2 | A4z2
D2 | G2A2B2c2 | d3ed2c2 | B2B2A2A2 | G4z2

@@@ Tune index: 71
